src/svg/tablet-landscape.svg

<svg xmlns="http://www.w3.org/2000/svg" width="512" height="512"><path d="M512 128v256a64.07 64.07 0 01-64 64H64a64.07 64.07 0 01-64-64V128a64.07 64.07 0 0164-64h384a64.07 64.07 0 0164 64zM32 384a32 32 0 0032 32h384a32 32 0 0032-32V128a32 32 0 00-32-32H64a32 32 0 00-32 32z"/><path d="M0 128a64.07 64.07 0 0164-64h384a64.07 64.07 0 0164 64v256a64.07 64.07 0 01-64 64H64a64.07 64.07 0 01-64-64V128m480 256V128a32 32 0 00-32-32H64a32 32 0 00-32 32v256a32 32 0 0032 32h384a32 32 0 0032-32m-16 0a16 16 0 01-16 16H64a16 16 0 01-16-16V128a16 16 0 0116-16h384a16 16 0 0116 16v256z"/></svg>

<svg xmlns="http://www.w3.org/2000/svg" width="512" height="512" viewBox="0 0 512 512"><title>ionicons-v5-k</title><path d="M512,128V384a64.07,64.07,0,0,1-64,64H64A64.07,64.07,0,0,1,0,384V128A64.07,64.07,0,0,1,64,64H448A64.07,64.07,0,0,1,512,128ZM32,384a32,32,0,0,0,32,32H448a32,32,0,0,0,32-32V128a32,32,0,0,0-32-32H64a32,32,0,0,0-32,32Z"/><path d="M0,128A64.07,64.07,0,0,1,64,64H448a64.07,64.07,0,0,1,64,64V384a64.07,64.07,0,0,1-64,64H64A64.07,64.07,0,0,1,0,384V128M480,384V128a32,32,0,0,0-32-32H64a32,32,0,0,0-32,32V384a32,32,0,0,0,32,32H448a32,32,0,0,0,32-32m-16,0a16,16,0,0,1-16,16H64a16,16,0,0,1-16-16V128a16,16,0,0,1,16-16H448a16,16,0,0,1,16,16V384Z"/></svg>
